src/apps/22/umbrello.svg

<?xml version="1.0" encoding="UTF-8" standalone="no"?>
<!-- Created with Inkscape (http://www.inkscape.org/) -->

<svg
   xmlns:dc="http://purl.org/dc/elements/1.1/"
   xmlns:cc="http://creativecommons.org/ns#"
   xmlns:rdf="http://www.w3.org/1999/02/22-rdf-syntax-ns#"
   xmlns:svg="http://www.w3.org/2000/svg"
   xmlns="http://www.w3.org/2000/svg"
   xmlns:xlink="http://www.w3.org/1999/xlink"
   xmlns:sodipodi="http://sodipodi.sourceforge.net/DTD/sodipodi-0.dtd"
   xmlns:inkscape="http://www.inkscape.org/namespaces/inkscape"
   width="22"
   height="22"
   id="svg3084"
   version="1.1"
   inkscape:version="0.91 r13725"
   sodipodi:docname="umbrello.svg">
  <defs
     id="defs3086">
    <linearGradient
       inkscape:collect="always"
       xlink:href="#linearGradient3941"
       id="linearGradient4726-5-8"
       gradientUnits="userSpaceOnUse"
       gradientTransform="matrix(1.4285711,0,0,1.4285711,-544.34638,-736.75214)"
       x1="394.34604"
       y1="545.12805"
       x2="383.14603"
       y2="533.92804" />
    <linearGradient
       inkscape:collect="always"
       id="linearGradient3941">
      <stop
         style="stop-color:#cd1f03;stop-opacity:1"
         offset="0"
         id="stop3943" />
      <stop
         style="stop-color:#d94460;stop-opacity:1"
         offset="1"
         id="stop3945" />
    </linearGradient>
    <linearGradient
       inkscape:collect="always"
       xlink:href="#linearGradient4578"
       id="linearGradient4584"
       gradientUnits="userSpaceOnUse"
       gradientTransform="matrix(1.4285711,0,0,1.4285711,-529.94935,-787.04977)"
       x1="403.00854"
       y1="547.57806"
       x2="383.14603"
       y2="533.92804" />
    <linearGradient
       id="linearGradient4578"
       inkscape:collect="always">
      <stop
         id="stop4580"
         offset="0"
         style="stop-color:#b21b03;stop-opacity:1" />
      <stop
         id="stop4582"
         offset="1"
         style="stop-color:#d94460;stop-opacity:1" />
    </linearGradient>
    <linearGradient
       inkscape:collect="always"
       xlink:href="#linearGradient4064"
       id="linearGradient4600"
       x1="11.369819"
       y1="-12.558744"
       x2="47.998947"
       y2="25.997604"
       gradientUnits="userSpaceOnUse"
       gradientTransform="translate(-3.6019157,-29.295625)" />
    <linearGradient
       id="linearGradient4064"
       inkscape:collect="always">
      <stop
         id="stop4066"
         offset="0"
         style="stop-color:#000000;stop-opacity:0.188" />
      <stop
         id="stop4068"
         offset="1"
         style="stop-color:#000000;stop-opacity:0;" />
    </linearGradient>
    <linearGradient
       inkscape:collect="always"
       xlink:href="#linearGradient4058"
       id="linearGradient4600-7"
       x1="2.1875"
       y1="20.018221"
       x2="31.6875"
       y2="48.455719"
       gradientUnits="userSpaceOnUse"
       gradientTransform="translate(-8.9989454,-21.997605)" />
    <linearGradient
       id="linearGradient4058"
       inkscape:collect="always">
      <stop
         id="stop4060"
         offset="0"
         style="stop-color:#000000;stop-opacity:0.145" />
      <stop
         id="stop4062"
         offset="1"
         style="stop-color:#000000;stop-opacity:0;" />
    </linearGradient>
    <linearGradient
       inkscape:collect="always"
       xlink:href="#linearGradient3941-1"
       id="linearGradient4726-5-8-3"
       gradientUnits="userSpaceOnUse"
       gradientTransform="matrix(1.4285711,0,0,1.4285711,-553.35201,-758.19971)"
       x1="394.34604"
       y1="545.12805"
       x2="383.14603"
       y2="533.92804" />
    <linearGradient
       inkscape:collect="always"
       id="linearGradient3941-1">
      <stop
         style="stop-color:#cd1f03;stop-opacity:1"
         offset="0"
         id="stop3943-4" />
      <stop
         style="stop-color:#d94460;stop-opacity:1"
         offset="1"
         id="stop3945-9" />
    </linearGradient>
    <linearGradient
       y2="533.92804"
       x2="383.14603"
       y1="545.12805"
       x1="394.34604"
       gradientTransform="matrix(1.4285711,0,0,1.4285711,-554.34638,-758.75215)"
       gradientUnits="userSpaceOnUse"
       id="linearGradient3228"
       xlink:href="#linearGradient3941"
       inkscape:collect="always" />
    <linearGradient
       inkscape:collect="always"
       xlink:href="#linearGradient3941-1"
       id="linearGradient3293"
       gradientUnits="userSpaceOnUse"
       gradientTransform="matrix(1.4419679,0,0,1.4419679,-553.11392,-773.66169)"
       x1="394.34604"
       y1="545.12805"
       x2="383.14603"
       y2="533.92804" />
    <linearGradient
       inkscape:collect="always"
       xlink:href="#linearGradient4058"
       id="linearGradient3295"
       gradientUnits="userSpaceOnUse"
       gradientTransform="matrix(1.0093777,0,0,1.0093777,-3.6560233,-30.555615)"
       x1="2.1875"
       y1="20.018221"
       x2="31.6875"
       y2="48.455719" />
    <linearGradient
       inkscape:collect="always"
       xlink:href="#linearGradient3941"
       id="linearGradient3297"
       gradientUnits="userSpaceOnUse"
       gradientTransform="matrix(1.298701,0,0,1.298701,-497.13577,-695.9547)"
       x1="394.34604"
       y1="545.12805"
       x2="383.14603"
       y2="533.92804" />
    <linearGradient
       gradientTransform="matrix(0.44993251,0,0,0.44993251,-190.83028,-230.67328)"
       gradientUnits="userSpaceOnUse"
       x2="419.97357"
       y2="539.82538"
       x1="406.50085"
       y1="527.01447"
       id="c">
      <stop
         id="stop17"
         stop-color="#292c2f" />
      <stop
         id="stop19"
         stop-opacity="0"
         offset="1" />
    </linearGradient>
    <linearGradient
       gradientUnits="userSpaceOnUse"
       x2="0"
       y2="14"
       y1="34"
       id="b"
       gradientTransform="matrix(0.44993251,0,0,0.44993251,-17.79973,-5.797)">
      <stop
         style="stop-color:#bfc9c9;stop-opacity:1"
         id="stop12"
         stop-color="#536161" />
      <stop
         style="stop-color:#fbfbfb;stop-opacity:1"
         id="stop14"
         stop-color="#f4f5f5"
         offset="1" />
    </linearGradient>
    <linearGradient
       x1="428.81628"
       gradientTransform="matrix(0.44993251,0,0,0.44993251,-172.83028,-230.67328)"
       gradientUnits="userSpaceOnUse"
       x2="388.86475"
       y2="499.67896"
       y1="547.63354"
       id="a">
      <stop
         id="stop7"
         stop-color="#2a2c2f" />
      <stop
         id="stop9"
         stop-color="#536161"
         offset="1" />
    </linearGradient>
    <linearGradient
       inkscape:collect="always"
       xlink:href="#linearGradient3941"
       id="linearGradient3297-7"
       gradientUnits="userSpaceOnUse"
       gradientTransform="matrix(1.298701,0,0,1.298701,-499.13577,-691.9547)"
       x1="394.34604"
       y1="545.12805"
       x2="383.14603"
       y2="533.92804" />
  </defs>
  <sodipodi:namedview
     id="base"
     pagecolor="#ffffff"
     bordercolor="#666666"
     borderopacity="1.0"
     inkscape:pageopacity="0.0"
     inkscape:pageshadow="2"
     inkscape:zoom="16"
     inkscape:cx="19.878831"
     inkscape:cy="5.5750249"
     inkscape:current-layer="layer1"
     showgrid="false"
     inkscape:grid-bbox="true"
     inkscape:document-units="px"
     showguides="false"
     inkscape:guide-bbox="true"
     inkscape:window-width="1280"
     inkscape:window-height="782"
     inkscape:window-x="-2"
     inkscape:window-y="-1"
     inkscape:window-maximized="1"
     inkscape:snap-bbox="true"
     inkscape:bbox-nodes="true"
     inkscape:object-nodes="false">
    <inkscape:grid
       type="xygrid"
       id="grid3092"
       empspacing="5"
       visible="true"
       enabled="true"
       snapvisiblegridlinesonly="true" />
    <sodipodi:guide
       orientation="0.70710678,0.70710678"
       position="5.1923341,7.4540257"
       id="guide3299" />
    <sodipodi:guide
       orientation="0.70710678,0.70710678"
       position="6.9443487,4.4915283"
       id="guide3301" />
    <sodipodi:guide
       orientation="0.70710678,0.70710678"
       position="15.2266,17.456436"
       id="guide3303" />
    <sodipodi:guide
       orientation="0.70710678,0.70710678"
       position="10.607652,19.590709"
       id="guide3305" />
    <sodipodi:guide
       orientation="1,0"
       position="2,24"
       id="guide3307" />
    <sodipodi:guide
       orientation="1,0"
       position="20,24"
       id="guide3309" />
    <sodipodi:guide
       orientation="0,1"
       position="-2,20"
       id="guide3311" />
    <sodipodi:guide
       orientation="0,1"
       position="-2,2"
       id="guide3313" />
    <sodipodi:guide
       orientation="0,1"
       position="-2,19"
       id="guide3315" />
    <sodipodi:guide
       orientation="1,0"
       position="3,24"
       id="guide3039" />
    <sodipodi:guide
       orientation="1,0"
       position="19,24"
       id="guide3041" />
    <sodipodi:guide
       orientation="0,1"
       position="-2,3"
       id="guide3043" />
    <sodipodi:guide
       orientation="1,0"
       position="11,30"
       id="guide3045" />
    <sodipodi:guide
       orientation="0,1"
       position="-6,11"
       id="guide3047" />
  </sodipodi:namedview>
  <metadata
     id="metadata3089">
    <rdf:RDF>
      <cc:Work
         rdf:about="">
        <dc:format>image/svg+xml</dc:format>
        <dc:type
           rdf:resource="http://purl.org/dc/dcmitype/StillImage" />
        <dc:title />
      </cc:Work>
    </rdf:RDF>
  </metadata>
  <g
     id="layer1"
     inkscape:label="Layer 1"
     inkscape:groupmode="layer"
     transform="translate(0,6)">
    <rect
       style="fill:url(#linearGradient3297);color:#000000;clip-rule:nonzero;display:inline;overflow:visible;visibility:visible;opacity:1;isolation:auto;mix-blend-mode:normal;color-interpolation:sRGB;color-interpolation-filters:linearRGB;solid-color:#000000;solid-opacity:1;fill-opacity:1;fill-rule:nonzero;stroke:none;stroke-width:1;stroke-linecap:butt;stroke-linejoin:miter;stroke-miterlimit:4;stroke-dasharray:none;stroke-dashoffset:0;stroke-opacity:1;marker:none;filter-blend-mode:normal;filter-gaussianBlur-deviation:0;color-rendering:auto;image-rendering:auto;shape-rendering:auto;text-rendering:auto;enable-background:accumulate"
       id="rect23"
       height="17.997301"
       rx="0.99730492"
       y="-3.9973319"
       x="2.0000038"
       width="17.997301"
       ry="0.99733186" />
    <path
       sodipodi:nodetypes="ccccc"
       inkscape:connector-curvature="0"
       id="path3096"
       d="m 3,-3 16,0 0,16 -16,0 z"
       style="color:#000000;display:inline;overflow:visible;visibility:visible;fill:#f5d66c;fill-opacity:1;fill-rule:nonzero;stroke:none;stroke-width:1;marker:none;enable-background:accumulate" />
    <path
       sodipodi:nodetypes="ccccccccccccc"
       inkscape:connector-curvature="0"
       id="path3106"
       d="m 11.25566,-2.197395 1.16275,1.1627498 3.508751,1.30876133 3.073767,3.04621057 -0.01036,9.6712363 -9.5462387,0.0096 L 7.3176974,10.935575 7.1394456,9.6427543 3.65979,6.2070612 5.1318746,1.8800261 7.0500456,0.0510729 10.707952,-1.1533602 Z"
       style="color:#000000;display:inline;overflow:visible;visibility:visible;fill:url(#linearGradient3295);fill-opacity:1;fill-rule:nonzero;stroke:none;stroke-width:1px;marker:none;enable-background:accumulate" />
    <path
       sodipodi:nodetypes="cccccccccccccccccccccccccccccccccccccccccccc"
       inkscape:connector-curvature="0"
       id="path3108"
       d="m 10.473525,-1.7358166 -0.0044,0.4594818 C 9.1978243,-1.1808475 7.9842068,-0.88289636 6.8878085,-0.26445159 5.0213134,0.73247162 3.7550211,3.6253727 3.684997,5.6388097 3.6888447,5.822561 3.6458256,6.0287233 3.7204628,6.1983039 3.8978796,6.4271096 4.3223167,6.495602 4.5102272,6.2407077 4.993277,5.682093 5.7425835,5.2917311 6.5276957,5.3310768 7.2618122,5.294093 7.9398596,5.6912792 8.368265,6.2245759 8.523061,6.4262132 8.8513914,6.4803371 9.0539311,6.3118972 9.2968958,6.0841908 9.5124141,5.8199125 9.8114383,5.6455877 c 0.2134807,-0.133157 0.4502947,-0.227438 0.7002177,-0.272966 0.04347,1.753362 -0.0015,2.5260214 0.0068,4.2795545 0.01518,0.2898714 -0.05905,0.5770938 -0.263304,0.7994148 -0.3611929,0.45839 -1.0721836,0.62748 -1.6186419,0.362823 C 8.2048193,10.62092 7.9207299,10.197109 7.8972094,9.7539181 7.875639,9.5344048 7.7206773,9.3094952 7.4652573,9.2944514 7.1788695,9.2583052 6.9256015,9.5116657 6.9651026,9.7751095 c -0.017422,0.9605695 0.7996966,1.8289545 1.7953035,2.0108025 1.0699782,0.224102 2.2433579,-0.403726 2.5815059,-1.372469 0.191724,-0.5216563 0.08887,-1.0825173 0.121549,-1.6233849 0.0086,-1.4679483 -0.02186,-1.9548893 0.02305,-3.4225236 0.587866,0.1135145 1.062963,0.50383 1.427714,0.9265573 0.206708,0.1855135 0.569752,0.1439595 0.72386,-0.082225 0.345039,-0.4232703 0.838711,-0.7607063 1.406797,-0.8511134 0.733625,-0.1405023 1.482797,0.1299423 2.036995,0.5730592 0.216689,0.1364425 0.378104,0.3611877 0.622919,0.4560752 0.315062,0.093206 0.697022,-0.1771316 0.616555,-0.4967632 C 18.331234,4.023113 17.326698,1.211792 15.717816,0.11108666 14.60277,-0.66292447 13.243824,-1.1016173 11.863898,-1.2350953 11.73583,-1.2569991 11.605354,-1.2489544 11.491977,-1.280023 l -0.009,-0.4557945 c 0.0053,-0.6959671 -0.988555,-0.6861509 -1.009378,0 z m 4.905324,2.9702871 C 16.003355,1.7110159 16.84459,3.3530919 17.050607,4.4724798 16.434957,4.1100354 15.927667,4.1112931 15.19035,4.1794978 14.45671,4.2279075 13.763936,4.821445 13.237853,5.2946322 12.604709,4.7216619 11.725761,4.113427 10.834385,4.1758701 10.055852,4.194685 9.318438,4.5322097 8.7591959,5.0244399 7.909957,4.2400938 6.577465,3.9541037 5.441806,4.3216778 5.1942703,4.3967956 4.9351248,4.431061 4.9118392,4.219445 5.2225168,2.749277 6.9657374,0.98780981 7.6341635,0.60568463 8.3325642,0.24584246 9.8180213,-0.31322472 11.050812,-0.26816004 12.66198,-0.35282668 14.672566,0.5852205 15.378849,1.2344705 Z"
       style="color:#000000;display:inline;overflow:visible;visibility:visible;fill:url(#linearGradient3293);fill-opacity:1;fill-rule:nonzero;stroke:none;stroke-width:1;marker:none;enable-background:accumulate" />
    <path
       inkscape:connector-curvature="0"
       style="color:#000000;clip-rule:nonzero;display:inline;overflow:visible;visibility:visible;opacity:0.3;isolation:auto;mix-blend-mode:normal;color-interpolation:sRGB;color-interpolation-filters:linearRGB;solid-color:#000000;solid-opacity:1;fill:#ffffff;fill-opacity:1;fill-rule:nonzero;stroke-width:1;stroke-linecap:butt;stroke-linejoin:miter;stroke-miterlimit:4;stroke-dasharray:none;stroke-dashoffset:0;stroke-opacity:1;color-rendering:auto;image-rendering:auto;shape-rendering:auto;text-rendering:auto;enable-background:accumulate"
       d="M 2.998047,-3.9980469 C 2.44554,-3.9980469 2,-3.5525218 2,-3 l 0,1 c 0,-0.5525218 0.44554,-0.9980469 0.998047,-0.9980469 l 16.001953,0 c 0.552507,0 0.998047,0.4455251 0.998047,0.9980469 l 0,-1 c 0,-0.5525218 -0.44554,-0.9980469 -0.998047,-0.9980469 l -16.001953,0 z"
       id="rect7776" />
    <path
       id="path7790"
       d="M 2.998047,14 C 2.44554,14 2,13.5545 2,13.002 l 0,-1 C 2,12.5545 2.44554,13 2.998047,13 L 19,13 c 0.552507,0 0.998047,-0.4455 0.998047,-0.998 l 0,1 C 19.998047,13.5545 19.552507,14 19,14 L 2.998047,14 Z"
       style="color:#000000;clip-rule:nonzero;display:inline;overflow:visible;visibility:visible;opacity:0.3;isolation:auto;mix-blend-mode:normal;color-interpolation:sRGB;color-interpolation-filters:linearRGB;solid-color:#000000;solid-opacity:1;fill:#000000;fill-opacity:1;fill-rule:nonzero;stroke-width:1;stroke-linecap:butt;stroke-linejoin:miter;stroke-miterlimit:4;stroke-dasharray:none;stroke-dashoffset:0;stroke-opacity:1;color-rendering:auto;image-rendering:auto;shape-rendering:auto;text-rendering:auto;enable-background:accumulate"
       inkscape:connector-curvature="0" />
  </g>
</svg>

<svg xmlns="http://www.w3.org/2000/svg" xmlns:xlink="http://www.w3.org/1999/xlink" width="22" height="22"><defs><linearGradient id="e"><stop offset="0" style="stop-color:#cd1f03;stop-opacity:1"/><stop offset="1" style="stop-color:#d94460;stop-opacity:1"/></linearGradient><linearGradient xlink:href="#e" id="f" x1="394.346" x2="383.146" y1="545.128" y2="533.928" gradientTransform="translate(-553.114 -773.662)scale(1.44197)" gradientUnits="userSpaceOnUse"/></defs><g transform="translate(0 6)"><rect width="22" height="22" y="-6" rx="6.993" ry="6.993" style="fill:#f5d66c;fill-opacity:1;stroke-linecap:round;stroke-linejoin:round"/><path d="m10.474-1.736-.005.46c-1.271.095-2.485.393-3.581 1.012-1.867.996-3.133 3.89-3.203 5.903.004.184-.04.39.035.56.178.228.602.297.79.042.483-.559 1.233-.95 2.018-.91.734-.037 1.412.36 1.84.894.155.201.483.255.686.087.243-.228.458-.492.757-.666.214-.134.45-.228.7-.273.044 1.753 0 2.526.007 4.28.016.289-.059.576-.263.799-.361.458-1.072.627-1.618.362a1.26 1.26 0 0 1-.74-1.06c-.021-.22-.176-.445-.432-.46-.286-.036-.54.218-.5.481-.017.96.8 1.83 1.795 2.01 1.07.225 2.244-.403 2.582-1.372.192-.521.089-1.082.121-1.623.01-1.468-.021-1.955.024-3.422.587.113 1.062.503 1.427.926.207.186.57.144.724-.082.345-.423.839-.76 1.407-.851.734-.14 1.483.13 2.037.573.217.136.378.361.623.456.315.093.697-.177.616-.497.01-1.87-.994-4.681-2.603-5.782-1.115-.774-2.474-1.213-3.854-1.346-.128-.022-.259-.014-.372-.045l-.009-.456c.005-.696-.989-.686-1.01 0m4.905 2.97c.624.477 1.466 2.12 1.672 3.238-.616-.362-1.123-.36-1.86-.293-.734.049-1.427.642-1.953 1.116-.633-.573-1.512-1.182-2.404-1.12-.778.02-1.516.357-2.075.85-.849-.785-2.182-1.07-3.317-.703-.248.075-.507.11-.53-.103C5.222 2.75 6.966.988 7.634.606c.699-.36 2.184-.92 3.417-.874 1.611-.085 3.622.853 4.328 1.502" style="color:#000;display:inline;overflow:visible;visibility:visible;fill:url(#f);fill-opacity:1;fill-rule:nonzero;stroke:none;stroke-width:1;marker:none"/></g></svg>
